www/static/images/social-linkedin-blue.svg

<svg width="40" height="40" viewBox="0 0 40 40" fill="none" xmlns="http://www.w3.org/2000/svg">
<g clip-path="url(#clip0_1_4)">
<rect width="40" height="40" fill="white"/>
<circle cx="20" cy="20" r="20" fill="#126F9A"/>
<rect x="6" y="6" width="28" height="28" rx="11" fill="white"/>
<g clip-path="url(#clip1_1_4)">
<path d="M33.0938 4.96875H7.90625C7.39239 4.96875 6.89958 5.17288 6.53623 5.53623C6.17288 5.89958 5.96875 6.39239 5.96875 6.90625V32.0938C5.96875 32.6076 6.17288 33.1004 6.53623 33.4638C6.89958 33.8271 7.39239 34.0312 7.90625 34.0312H33.0938C33.6076 34.0312 34.1004 33.8271 34.4638 33.4638C34.8271 33.1004 35.0312 32.6076 35.0312 32.0938V6.90625C35.0312 6.39239 34.8271 5.89958 34.4638 5.53623C34.1004 5.17288 33.6076 4.96875 33.0938 4.96875ZM14.578 29.7629H10.2061V15.8672H14.578V29.7629ZM12.3916 13.9597C11.8889 13.9582 11.3981 13.8077 10.9809 13.5274C10.5637 13.247 10.239 12.8493 10.0477 12.3845C9.85642 11.9197 9.80716 11.4087 9.90615 10.9159C10.0051 10.4231 10.248 9.97074 10.6039 9.61588C10.9598 9.26101 11.413 9.01959 11.906 8.92209C12.3991 8.8246 12.91 8.87541 13.3742 9.0681C13.8385 9.2608 14.2352 9.58674 14.5142 10.0048C14.7933 10.4228 14.9423 10.9141 14.9423 11.4167C14.9424 11.7514 14.8765 12.0828 14.7482 12.3918C14.62 12.7009 14.432 12.9817 14.195 13.2179C13.958 13.4542 13.6767 13.6413 13.3672 13.7686C13.0578 13.8959 12.7262 13.9609 12.3916 13.9597ZM30.7891 29.7629H26.5063V23.0417C26.5063 21.4075 26.5063 19.4089 24.2297 19.4089C21.9531 19.4089 21.679 21.1353 21.679 22.9507V29.854H17.4V15.8672H21.4068V17.7747H21.4978C21.911 17.0602 22.5107 16.4715 23.2327 16.0715C23.9546 15.6716 24.7717 15.4754 25.5966 15.5039C29.9686 15.5039 30.7881 18.4102 30.7881 22.134L30.7891 29.7629Z" fill="#126F9A"/>
</g>
</g>
<defs>
<clipPath id="clip0_1_4">
<rect width="40" height="40" fill="white"/>
</clipPath>
<clipPath id="clip1_1_4">
<rect x="5" y="4" width="31" height="31" rx="13" fill="white"/>
</clipPath>
</defs>
</svg>

<svg width="40" height="40" fill="none" xmlns="http://www.w3.org/2000/svg"><g clip-path="url(#a)"><path d="M0 0h40v40H0z"/><circle cx="20" cy="20" r="20" fill="#126F9A"/><rect x="6" y="6" width="28" height="28" rx="11" fill="#fff"/><g clip-path="url(#b)"><path d="M33.094 4.969H7.906A1.937 1.937 0 0 0 5.97 6.906v25.188a1.938 1.938 0 0 0 1.937 1.937h25.188a1.938 1.938 0 0 0 1.937-1.937V6.906a1.938 1.938 0 0 0-1.937-1.937ZM14.578 29.763h-4.372V15.867h4.372v13.896ZM12.392 13.96a2.543 2.543 0 1 1 .015-5.086 2.543 2.543 0 0 1-.015 5.086Zm18.397 15.803h-4.283v-6.721c0-1.635 0-3.633-2.276-3.633-2.277 0-2.551 1.726-2.551 3.542v6.903H17.4V15.867h4.007v1.908h.09a4.553 4.553 0 0 1 4.1-2.271c4.372 0 5.191 2.906 5.191 6.63l.001 7.629Z" fill="#126F9A"/></g></g><defs><clipPath id="a"><path fill="#fff" d="M0 0h40v40H0z"/></clipPath><clipPath id="b"><rect x="5" y="4" width="31" height="31" rx="13" fill="#fff"/></clipPath></defs></svg>
